tela-icon-theme/src/scalable/apps/unityhub.svg

<svg width="64" height="64" version="1.1" xmlns="http://www.w3.org/2000/svg">
 <rect x="6" y="6" width="52" height="52" rx="8" ry="8" fill="#e4e4e4" stroke-width=".92857"/>
 <path d="m44 13-15 4-2.309 4h-4.691l-11 11 11 11h4.691l2.309 4 15 4 4-15-2.309-4 2.309-4zm-5.625 5.744-6.498 11.256h-13.088l8.227-8.229zm3.463 2 3 11.256-3 11.256-6.498-11.256zm-23.049 13.256h13.088l6.498 11.256-11.359-3.027z" fill="#303030"/>
</svg>

<svg xmlns="http://www.w3.org/2000/svg" width="64" height="64"><rect width="52" height="52" x="6" y="6" fill="#e4e4e4" rx="8" ry="8"/><path fill="#303030" d="m44 13-15 4-2.309 4H22L11 32l11 11h4.691L29 47l15 4 4-15-2.309-4L48 28zm-5.625 5.744L31.877 30H18.789l8.227-8.229zm3.463 2 3 11.256-3 11.256L35.34 32zM18.789 34h13.088l6.498 11.256-11.359-3.027z"/></svg>
